X:1539
T:Watchmaker, The
R:reel
N:"collected from J. O'Neill"
B:"O'Neill's Dance Music of Ireland, 1539"
T: an uar.fairea.can.
Z:transcribed by John B. Walsh, walsh@math.ubc.ca 8/23/96
M:C|
L:1/8
K:Am
ed "Segno"|:(cA)Ac (BG)GB|(cA)AB (cd)ed|(cA)Ac (BG)GB|((3cBA) BG (EA)AB:|
c2 (ec) gcec|G2 (BG) dGBG|c2 (ec) gcec|(ea)ag (ea)ab|
geeg ^f<dd=f|e>cce (d<B)GB|(AB)cd (ef)ed|((3cBA) BG (EA)AB "Segno"||


